svg/actix.svg

<svg viewBox="0 0 20 20" xmlns="http://www.w3.org/2000/svg">
<rect width="100%" height="100%" fill="white"/>
<path d="M17.392 10.001C17.392 9.76794 17.7674 9.58848 18.25 9.55341C18.25 9.41933 18.2314 9.28525 18.2191 9.15324C17.7385 9.20481 17.3384 9.07485 17.3013 8.84382C17.2641 8.6128 17.6065 8.36733 18.0788 8.26832C18.0499 8.1363 18.019 8.00634 17.9839 7.87845C17.5178 8.00428 17.1032 7.93827 17.0311 7.7155C16.9589 7.49272 17.2559 7.19774 17.7076 7.02447C17.6581 6.90071 17.6086 6.77694 17.5549 6.65524C17.1136 6.8512 16.6928 6.8512 16.5856 6.64492C16.4783 6.43865 16.7279 6.09623 17.1466 5.85695C17.0806 5.73937 17.0104 5.62592 16.9403 5.51453C16.5278 5.77857 16.1153 5.84457 15.9833 5.6548C15.8513 5.46503 16.0369 5.09167 16.4123 4.78844C16.3277 4.6853 16.2411 4.58217 16.1524 4.48315C15.7936 4.80701 15.3934 4.93696 15.2284 4.774C15.0634 4.61105 15.1954 4.20881 15.5193 3.84989C15.4182 3.76119 15.313 3.67249 15.214 3.58998C14.9087 3.9654 14.5375 4.15724 14.3457 4.01903C14.1539 3.88083 14.2219 3.46621 14.4859 3.06191C14.3746 2.98972 14.2591 2.91958 14.1456 2.85564C13.9043 3.26819 13.564 3.52191 13.3557 3.41671C13.1474 3.31151 13.1494 2.88864 13.3454 2.44927C13.2237 2.39358 13.0999 2.34201 12.9762 2.29457C12.8029 2.74631 12.5059 3.04335 12.2853 2.97115C12.0646 2.89896 11.9965 2.48434 12.1223 2.01816C11.9924 1.98103 11.8563 1.95628 11.7325 1.92121C11.6335 2.39358 11.386 2.74631 11.1571 2.69887C10.9281 2.65143 10.7961 2.26156 10.8477 1.78094C10.7136 1.76856 10.5816 1.75 10.4476 1.75C10.4249 2.23269 10.2413 2.60811 10 2.60811C9.75869 2.60811 9.5875 2.23269 9.55244 1.75C9.41838 1.75 9.28431 1.76856 9.15231 1.78094C9.20387 2.26156 9.07394 2.66174 8.84294 2.69887C8.61194 2.736 8.3665 2.39358 8.2675 1.92121C8.1355 1.95009 8.00556 1.98103 7.87769 2.0161C8.0035 2.48228 7.9375 2.89689 7.71475 2.96909C7.492 3.04129 7.19706 2.74425 7.02381 2.29251C6.90006 2.34201 6.77631 2.39152 6.65463 2.44515C6.85056 2.88658 6.85056 3.30738 6.64431 3.41465C6.43806 3.52191 6.09569 3.27232 5.85644 2.85358C5.73887 2.91958 5.62544 2.98972 5.51406 3.05985C5.77806 3.4724 5.84406 3.88495 5.65431 4.01697C5.46456 4.14899 5.09125 3.96334 4.78806 3.58792C4.68494 3.67249 4.58181 3.75913 4.48281 3.84782C4.80662 4.20674 4.93656 4.60692 4.77362 4.77194C4.61069 4.93696 4.2085 4.80494 3.84963 4.48109C3.76094 4.58217 3.67225 4.68737 3.58975 4.78638C3.96512 5.09167 4.15694 5.46296 4.01875 5.6548C3.88056 5.84664 3.466 5.77857 3.06175 5.51453C2.98956 5.62592 2.91944 5.74144 2.8555 5.85489C3.268 6.09623 3.52169 6.43659 3.4165 6.64492C3.31131 6.85326 2.8885 6.8512 2.44919 6.65524C2.3935 6.77694 2.34194 6.90071 2.2945 7.02447C2.74619 7.19774 3.04319 7.49478 2.971 7.7155C2.89881 7.93621 2.48425 8.00428 2.01812 7.87845C1.981 8.00841 1.95625 8.14455 1.92119 8.26832C2.3935 8.36733 2.74619 8.61486 2.69875 8.84382C2.65131 9.07279 2.2615 9.20481 1.78094 9.15324C1.76856 9.28732 1.75 9.41933 1.75 9.55341C2.23262 9.5761 2.608 9.75969 2.608 10.001C2.608 10.2424 2.23262 10.4136 1.75 10.4486C1.75 10.5827 1.76856 10.7168 1.78094 10.8488C2.2615 10.7973 2.66162 10.9272 2.69875 11.1582C2.73587 11.3893 2.3935 11.6347 1.92119 11.7337C1.95006 11.8658 1.981 11.9957 2.01606 12.1236C2.48219 11.9978 2.89675 12.0638 2.96894 12.2866C3.04112 12.5093 2.74413 12.8043 2.29244 12.9776C2.34194 13.1014 2.39144 13.2251 2.44506 13.3468C2.88644 13.1509 3.30719 13.1509 3.41444 13.3571C3.52169 13.5634 3.27212 13.9058 2.85344 14.1451C2.91944 14.2627 2.98956 14.3761 3.05969 14.4875C3.47219 14.2235 3.88469 14.1575 4.01669 14.3473C4.14869 14.537 3.96306 14.9104 3.58769 15.2136C3.67225 15.3168 3.75887 15.4199 3.84756 15.5189C4.20644 15.1951 4.60656 15.0651 4.77156 15.2281C4.93656 15.391 4.80456 15.7933 4.48075 16.1522C4.58181 16.2409 4.687 16.3296 4.786 16.4121C5.09125 16.0367 5.4625 15.8448 5.65431 15.983C5.84613 16.1212 5.77806 16.5358 5.51406 16.9401C5.62544 17.0123 5.74094 17.0825 5.85437 17.1464C6.09569 16.7339 6.436 16.4802 6.64431 16.5854C6.85262 16.6906 6.85056 17.1134 6.65463 17.5528C6.77631 17.6085 6.90006 17.6601 7.02381 17.7075C7.19706 17.2558 7.49406 16.9587 7.71475 17.0309C7.93544 17.1031 8.0035 17.5177 7.87769 17.9839C8.00762 18.019 8.13756 18.0499 8.2675 18.0788C8.3665 17.6064 8.614 17.2537 8.84294 17.3011C9.07187 17.3486 9.20387 17.7384 9.15231 18.2191C9.28637 18.2314 9.41838 18.2417 9.55244 18.25C9.57513 17.7673 9.75869 17.3919 10 17.3919C10.2413 17.3919 10.4125 17.7673 10.4476 18.25C10.5816 18.25 10.7157 18.2314 10.8477 18.2191C10.7961 17.7384 10.9261 17.3383 11.1571 17.3011C11.3881 17.264 11.6335 17.6064 11.7325 18.0788C11.8645 18.0499 11.9944 18.019 12.1223 17.9839C11.9965 17.5177 12.0625 17.1031 12.2853 17.0309C12.508 16.9587 12.8029 17.2558 12.9762 17.7075C13.0999 17.658 13.2237 17.6085 13.3454 17.5549C13.1494 17.1134 13.1494 16.6926 13.3557 16.5854C13.5619 16.4781 13.9043 16.7277 14.1436 17.1464C14.2611 17.0804 14.3746 17.0103 14.4859 16.9401C14.2219 16.5276 14.1559 16.115 14.3457 15.983C14.5354 15.851 14.9087 16.0367 15.2119 16.4121C15.3151 16.3275 15.4182 16.2409 15.5172 16.1522C15.1934 15.7933 15.0634 15.3931 15.2264 15.2281C15.3893 15.063 15.7915 15.1951 16.1504 15.5189C16.2391 15.4178 16.3278 15.3126 16.4103 15.2136C16.0349 14.9104 15.8431 14.5391 15.9812 14.3473C16.1194 14.1554 16.534 14.2235 16.9382 14.4875C17.0104 14.3761 17.0806 14.2606 17.1445 14.1472C16.732 13.9058 16.4783 13.5655 16.5835 13.3571C16.6887 13.1488 17.1115 13.1509 17.5508 13.3468C17.6065 13.2251 17.6581 13.1014 17.7055 12.9776C17.2538 12.8043 16.9568 12.5073 17.029 12.2866C17.1012 12.0659 17.5157 11.9978 17.9819 12.1236C18.0169 11.9937 18.0479 11.8637 18.0768 11.7337C17.6044 11.6347 17.2517 11.3872 17.2992 11.1582C17.3466 10.9293 17.7364 10.7973 18.217 10.8488C18.2294 10.7147 18.2397 10.5827 18.2479 10.4486C17.7674 10.426 17.392 10.2341 17.392 10.001V10.001ZM14.059 5.66924C14.1753 5.66924 14.2889 5.70372 14.3856 5.76832C14.4822 5.83291 14.5576 5.92473 14.6021 6.03215C14.6466 6.13957 14.6582 6.25778 14.6355 6.37182C14.6128 6.48586 14.5569 6.59061 14.4746 6.67282C14.3924 6.75504 14.2877 6.81103 14.1737 6.83372C14.0597 6.8564 13.9415 6.84476 13.8341 6.80026C13.7266 6.75577 13.6348 6.68042 13.5703 6.58374C13.5057 6.48706 13.4712 6.3734 13.4712 6.25713C13.4717 6.10138 13.5338 5.95216 13.644 5.84203C13.7541 5.7319 13.9033 5.66978 14.059 5.66924V5.66924ZM4.43125 7.84339C4.53128 7.78403 4.64667 7.75569 4.76282 7.76195C4.87896 7.76821 4.99064 7.80879 5.08371 7.87856C5.17678 7.94832 5.24707 8.04413 5.28567 8.15387C5.32428 8.2636 5.32946 8.38232 5.30057 8.495C5.27168 8.60768 5.21002 8.70926 5.12338 8.78688C5.03675 8.86449 4.92903 8.91466 4.81388 8.93102C4.69872 8.94739 4.5813 8.92922 4.47648 8.87881C4.37165 8.82841 4.28413 8.74803 4.225 8.64786C4.14641 8.51366 4.12398 8.35384 4.16261 8.20318C4.20123 8.05252 4.29778 7.92321 4.43125 7.84339V7.84339ZM9.76075 16.1893C9.6335 16.307 9.48348 16.3974 9.31995 16.4549C9.15642 16.5124 8.98284 16.5357 8.80994 16.5235C8.28262 16.5041 7.76592 16.3697 7.29606 16.1295C6.30922 15.6622 5.44961 14.9638 4.79012 14.0935C4.20484 13.3593 3.79054 12.5038 3.57737 11.5894C3.48504 11.2224 3.46959 10.8404 3.532 10.4672C3.54648 10.3242 3.59069 10.1858 3.66178 10.0609C3.73288 9.93602 3.82929 9.82735 3.94484 9.7419C4.06038 9.65644 4.19251 9.59608 4.33275 9.56469C4.47299 9.53329 4.61824 9.53156 4.75919 9.5596C5.24191 9.63265 5.70292 9.81004 6.11012 10.0794C6.99164 10.6272 7.77753 11.3157 8.43662 12.1174C8.79039 12.5261 9.10655 12.9659 9.38125 13.4314C9.71518 13.9475 9.94175 14.5255 10.0474 15.1311C10.0928 15.5189 10.0598 15.8923 9.76075 16.1893V16.1893ZM10 11.6265C9.67856 11.6265 9.36433 11.5312 9.09706 11.3525C8.82979 11.1739 8.62148 10.9201 8.49846 10.6231C8.37545 10.3261 8.34327 9.99923 8.40598 9.68392C8.46869 9.36861 8.62348 9.07899 8.85077 8.85166C9.07807 8.62434 9.36766 8.46953 9.68293 8.40681C9.9982 8.34409 10.325 8.37628 10.622 8.49931C10.9189 8.62234 11.1728 8.83067 11.3513 9.09798C11.5299 9.36528 11.6253 9.67955 11.6253 10.001C11.6253 10.4321 11.454 10.8456 11.1492 11.1504C10.8444 11.4552 10.431 11.6265 10 11.6265V11.6265ZM11.716 15.6798C11.6571 15.7803 11.5697 15.861 11.4649 15.9117C11.3601 15.9624 11.2426 15.9808 11.1273 15.9646C11.012 15.9485 10.9041 15.8984 10.8173 15.8208C10.7304 15.7432 10.6686 15.6416 10.6396 15.5288C10.6106 15.416 10.6158 15.2972 10.6544 15.1873C10.6931 15.0775 10.7635 14.9816 10.8567 14.9118C10.9499 14.842 11.0617 14.8015 11.178 14.7954C11.2942 14.7893 11.4097 14.8178 11.5097 14.8774C11.6427 14.9572 11.7388 15.0861 11.7774 15.2363C11.816 15.3865 11.7939 15.5458 11.716 15.6798V15.6798ZM8.94813 7.5876C8.41897 7.68717 7.88193 7.73895 7.3435 7.74231C6.72908 7.77376 6.11462 7.68116 5.53675 7.47003C5.35451 7.41527 5.18859 7.31641 5.05368 7.18221C4.91877 7.048 4.81903 6.88258 4.76331 6.70062C4.72514 6.53119 4.7221 6.35573 4.75438 6.18508C4.78666 6.01443 4.85358 5.85221 4.951 5.70843C5.23135 5.26171 5.60582 4.88157 6.04825 4.59454C6.94656 3.97463 7.98076 3.57985 9.06362 3.44352C9.99153 3.30705 10.9381 3.37749 11.8356 3.6498C12.2001 3.75325 12.5393 3.93093 12.8318 4.17168C12.9482 4.25581 13.0458 4.36333 13.1182 4.48735C13.1907 4.61137 13.2364 4.74916 13.2525 4.89189C13.2686 5.03462 13.2548 5.17915 13.2118 5.3162C13.1688 5.45326 13.0977 5.57983 13.003 5.6878C12.6986 6.0702 12.3142 6.38138 11.8769 6.59954C10.9611 7.08656 9.97175 7.42033 8.94813 7.5876V7.5876ZM16.1463 12.4763C15.8018 13.3483 15.2695 14.1336 14.587 14.7763C14.3137 15.0354 13.9901 15.2355 13.6362 15.3642C13.5047 15.4224 13.3624 15.4525 13.2186 15.4524C13.0748 15.4524 12.9325 15.4223 12.801 15.364C12.6695 15.3057 12.5517 15.2206 12.455 15.114C12.3584 15.0075 12.2851 14.8819 12.2399 14.7454C12.0602 14.2906 11.9827 13.8019 12.013 13.3138C12.0476 12.2764 12.251 11.2515 12.6152 10.2795C12.7937 9.77165 13.0174 9.28081 13.2835 8.81288C13.563 8.26465 13.951 7.779 14.4241 7.38545C14.7314 7.14617 15.0717 6.98734 15.4739 7.09873C15.6397 7.1501 15.7932 7.23502 15.9248 7.34822C16.0565 7.46142 16.1634 7.60047 16.2391 7.75675C16.4843 8.22276 16.6251 8.73661 16.6516 9.26256C16.7447 10.3589 16.5713 11.4615 16.1463 12.4763V12.4763Z" fill="black"/>
</svg>

<svg xmlns="http://www.w3.org/2000/svg" viewBox="0 0 20 20">
  <rect width="100%" height="100%"/>
  <path fill="#fff" d="M17.4 10c0-.23.37-.41.85-.45l-.03-.4c-.48.05-.88-.08-.92-.3-.04-.24.3-.48.78-.58a7.67 7.67 0 0 0-.1-.4c-.46.13-.88.07-.95-.15-.07-.23.23-.52.68-.7l-.16-.36c-.44.2-.86.2-.96-.02-.11-.2.14-.54.56-.78a7.94 7.94 0 0 0-.21-.35c-.41.27-.82.33-.96.14-.13-.18.06-.56.43-.86l-.26-.3c-.36.32-.76.45-.92.28-.17-.16-.03-.56.29-.92l-.3-.26c-.31.38-.68.57-.87.43-.2-.14-.13-.55.14-.96a6.44 6.44 0 0 0-.34-.2c-.25.4-.59.66-.8.56-.2-.1-.2-.53 0-.97l-.37-.16c-.18.46-.47.75-.7.68-.22-.07-.28-.49-.16-.95l-.39-.1c-.1.47-.34.83-.57.78-.23-.05-.36-.44-.31-.92l-.4-.03c-.03.48-.2.86-.45.86-.24 0-.41-.38-.45-.86l-.4.03c.05.48-.08.88-.3.92-.24.04-.48-.3-.58-.78l-.4.1c.13.46.07.88-.16.95-.22.07-.51-.23-.69-.68l-.37.16c.2.44.2.86 0 .96-.21.11-.55-.14-.8-.56l-.34.21c.27.41.33.82.14.96-.19.13-.56-.06-.86-.43l-.3.26c.32.36.45.76.28.92-.16.17-.56.03-.92-.29l-.26.3c.38.31.57.68.43.87-.14.2-.55.13-.96-.14a6.5 6.5 0 0 0-.2.34c.4.25.66.59.56.8-.1.2-.53.2-.97 0l-.16.37c.46.18.75.47.68.7-.07.22-.49.28-.95.16l-.1.39c.47.1.83.34.78.57-.05.23-.44.36-.92.31l-.03.4c.48.03.86.21.86.45 0 .24-.38.41-.86.45l.03.4c.48-.05.88.08.92.3.04.24-.3.48-.78.58l.1.4c.46-.13.88-.07.95.16.07.22-.23.51-.68.69l.16.37c.44-.2.86-.2.96 0 .11.21-.14.56-.56.8l.21.34c.41-.27.82-.33.96-.14.13.19-.06.56-.43.86l.26.3c.36-.31.76-.44.92-.28.17.16.03.56-.29.92.1.1.2.18.3.26.31-.37.68-.57.87-.43.2.14.13.56-.14.96l.34.2c.25-.4.59-.66.8-.55.2.1.2.52 0 .96l.37.16c.18-.45.47-.75.7-.68.22.07.28.49.16.95l.39.1c.1-.47.34-.83.57-.78.23.05.36.44.31.92l.4.03c.03-.48.2-.86.45-.86.24 0 .41.38.45.86l.4-.03c-.05-.48.08-.88.3-.92.24-.04.48.3.58.78l.4-.1c-.13-.46-.07-.88.16-.95.22-.07.51.23.69.68l.37-.16c-.2-.44-.2-.86 0-.96.21-.11.55.14.8.56l.34-.21c-.27-.41-.33-.83-.14-.96s.56.06.86.43l.3-.26c-.32-.36-.45-.76-.28-.92.16-.17.56-.03.92.29l.26-.3c-.38-.31-.57-.68-.43-.87.14-.2.55-.13.96.14l.2-.34c-.4-.24-.66-.58-.56-.8.1-.2.53-.2.97 0l.16-.37c-.46-.18-.75-.47-.68-.7.07-.21.49-.28.95-.16l.1-.39c-.48-.1-.83-.34-.78-.57.05-.23.44-.36.92-.31 0-.14.02-.27.03-.4-.48-.02-.86-.22-.86-.45Zm-3.34-4.33a.59.59 0 1 1 0 1.17.59.59 0 0 1 0-1.17ZM4.43 7.84a.59.59 0 1 1 .6 1.01.59.59 0 0 1-.6-1Zm5.33 8.35a1.27 1.27 0 0 1-.95.33 3.62 3.62 0 0 1-1.51-.39 6.79 6.79 0 0 1-2.51-2.04c-.59-.73-1-1.59-1.21-2.5-.1-.37-.11-.75-.05-1.12a1.03 1.03 0 0 1 1.23-.91c.48.07.94.25 1.35.52a9.51 9.51 0 0 1 2.33 2.04c.35.4.67.85.94 1.31.34.52.56 1.1.67 1.7.04.39.01.76-.29 1.06Zm.24-4.56a1.62 1.62 0 1 1 0-3.25 1.62 1.62 0 0 1 0 3.25Zm1.72 4.05a.59.59 0 1 1-1.02-.6.59.59 0 0 1 1.02.6Zm-2.77-8.1c-.53.1-1.07.16-1.6.16a4.58 4.58 0 0 1-1.81-.27 1.16 1.16 0 0 1-.78-.77 1.27 1.27 0 0 1 .2-1c.27-.44.65-.82 1.09-1.1a6.8 6.8 0 0 1 5.79-.95c.36.1.7.28 1 .52A1.03 1.03 0 0 1 13 5.7c-.3.38-.69.7-1.12.91a9.5 9.5 0 0 1-2.93.99Zm7.2 4.9a6.38 6.38 0 0 1-1.56 2.3c-.28.26-.6.46-.95.58a1.03 1.03 0 0 1-1.4-.61 3.33 3.33 0 0 1-.23-1.44 9.56 9.56 0 0 1 1.27-4.5c.28-.55.67-1.03 1.14-1.42.31-.24.65-.4 1.05-.3a1.27 1.27 0 0 1 .77.67c.24.46.39.98.41 1.5.1 1.1-.08 2.2-.5 3.22Z"/>
</svg>
